!! 00000] TT[WS
!!!OTL: Chuzhuan niaglaozi shui xinteng
!!!ARE: Asia, China, Shanxi Hequ
!! Ethnic Group: Han
!! WII, 1 (1)
!!!SCT: J0401
!!!YEM: Copyright 1995, estate of Helmut Schaffrath.
**kern
*ICvox
*Ivox
*M2/4
*k[f#]
*G:
{8dd
8ee
4dd
=1
8b
8a
8g
8e
=2
8g
8a
8b
8dd
=3
2a}
=4
{8dd
8ee
8dd
8dd
=5
8b
8a
8g
8e
=6
8g
8a
8b
8e
=7
2d}
==
!!!AGN: Shange, Shanqu. Qingge, Aisu
!!!ONB: ESAC (Essen Associative Code) Database: CHINA
!!!AMT: simple duple
!!!AIN: vox
!!!EED: Helmut Schaffrath
!!!EEV: 1.0
*-
